packages/icons/svg/Fill/arrow-right.svg

<svg fill="none" height="24" viewBox="0 0 24 24" width="24" xmlns="http://www.w3.org/2000/svg"><path clip-rule="evenodd" d="m4.99998 13h11.86502l-3.633 4.36c-.354.424-.296 1.055.128 1.408.425.354 1.055.296 1.409-.128l5-6c.039-.047.058-.102.087-.154.024-.042.053-.078.071-.124.045-.115.072-.236.072-.358 0-.001.001-.003.001-.004s-.001-.003-.001-.004c0-.122-.027-.243-.072-.358-.018-.046-.047-.082-.071-.124-.029-.052-.048-.107-.087-.154l-5-6c-.199-.237-.483-.36-.769-.36-.226 0-.453.076-.64.232-.424.353-.482.984-.128 1.408l3.633 4.36h-11.86502c-.552 0-1 .448-1 1s.448 1 1 1" fill="#6b7280" fill-rule="evenodd"/></svg>

<svg width="24" height="24" viewBox="0 0 24 24" fill="none" xmlns="http://www.w3.org/2000/svg">
<g id="Icon/Fill/arrow-right">
<path id="Mask" fill-rule="evenodd" clip-rule="evenodd" d="M5 13H16.865L13.232 17.36C12.878 17.784 12.936 18.415 13.36 18.768C13.785 19.122 14.415 19.064 14.769 18.64L19.769 12.64C19.808 12.593 19.827 12.538 19.856 12.486C19.88 12.444 19.909 12.408 19.927 12.362C19.972 12.247 19.999 12.126 19.999 12.004C19.999 12.003 20 12.001 20 12C20 11.999 19.999 11.997 19.999 11.996C19.999 11.874 19.972 11.753 19.927 11.638C19.909 11.592 19.88 11.556 19.856 11.514C19.827 11.462 19.808 11.407 19.769 11.36L14.769 5.36C14.57 5.123 14.286 5 14 5C13.774 5 13.547 5.076 13.36 5.232C12.936 5.585 12.878 6.216 13.232 6.64L16.865 11H5C4.448 11 4 11.448 4 12C4 12.552 4.448 13 5 13Z" fill="#000000"/>
</g>
</svg>
